small/extra/apps/standard/help-contents.svg

<?xml version="1.0" encoding="UTF-8" standalone="no"?>
<!-- Created with Inkscape (http://www.inkscape.org/) -->

<svg
   xmlns:dc="http://purl.org/dc/elements/1.1/"
   xmlns:cc="http://creativecommons.org/ns#"
   xmlns:rdf="http://www.w3.org/1999/02/22-rdf-syntax-ns#"
   xmlns:svg="http://www.w3.org/2000/svg"
   xmlns="http://www.w3.org/2000/svg"
   xmlns:sodipodi="http://sodipodi.sourceforge.net/DTD/sodipodi-0.dtd"
   xmlns:inkscape="http://www.inkscape.org/namespaces/inkscape"
   version="1.1"
   width="100%"
   height="100%"
   viewBox="0 0 512 512"
   id="svg2"
   inkscape:version="0.91+devel r13804 custom"
   sodipodi:docname="help-contents.svg">
  <sodipodi:namedview
     pagecolor="#ffffff"
     bordercolor="#666666"
     borderopacity="1"
     objecttolerance="10"
     gridtolerance="10"
     guidetolerance="10"
     inkscape:pageopacity="0"
     inkscape:pageshadow="2"
     inkscape:window-width="1366"
     inkscape:window-height="709"
     id="namedview69"
     showgrid="false"
     inkscape:zoom="0.4609375"
     inkscape:cx="-8.6779661"
     inkscape:cy="237.55932"
     inkscape:window-x="-2"
     inkscape:window-y="-3"
     inkscape:window-maximized="1"
     inkscape:current-layer="svg2" />
  <metadata
     id="metadata135">
    <rdf:RDF>
      <cc:Work
         rdf:about="">
        <dc:format>image/svg+xml</dc:format>
        <dc:type
           rdf:resource="http://purl.org/dc/dcmitype/StillImage" />
      </cc:Work>
    </rdf:RDF>
  </metadata>
  <defs
     id="defs4" />
  <path
     d="M 26,0 C 11.603,0 0,11.603 0,26 v 460 c 0,14.397 11.603,26 26,26 h 460 c 14.397,0 26,-11.603 26,-26 V 26 C 512,11.603 500.397,0 486,0 H 26"
     inkscape:connector-curvature="0"
     id="path9"
     style="fill:#ef6a47" />
  <text
     x="-1.597"
     y="192.28"
     id="text11"
     style="font-size:129.22999573px;line-height:125%;letter-spacing:0;word-spacing:0;font-family:Gentium Book Basic">
    <tspan
       x="-1.597"
       y="192.28"
       id="tspan13" />
  </text>
  <text
     x="196.67999"
     y="422.44"
     transform="scale(4.0128,0.2492)"
     id="text15"
     style="font-size:46.95399857px;text-anchor:middle;font-family:Arial" />
  <text
     x="579.66998"
     y="112.28"
     id="text17"
     style="font-size:129.22999573px;line-height:125%;letter-spacing:0;word-spacing:0;font-family:Gentium Book Basic">
    <tspan
       x="579.66998"
       y="112.28"
       id="tspan19" />
  </text>
  <text
     x="341.53"
     y="101.4"
     transform="scale(4.0128,0.2492)"
     id="text21"
     style="font-size:46.95399857px;text-anchor:middle;font-family:Arial" />
  <text
     x="-491.91"
     y="-68.978996"
     id="text23"
     style="font-size:129.22999573px;line-height:125%;letter-spacing:0;word-spacing:0;font-family:Gentium Book Basic">
    <tspan
       x="-491.91"
       y="-68.978996"
       id="tspan25" />
  </text>
  <text
     x="74.489998"
     y="-625.94"
     transform="scale(4.0128,0.2492)"
     id="text27"
     style="font-size:46.95399857px;text-anchor:middle;font-family:Arial" />
  <text
     x="606.14001"
     y="-285.45001"
     id="text29"
     style="font-size:129.22999573px;line-height:125%;letter-spacing:0;word-spacing:0;font-family:Gentium Book Basic">
    <tspan
       x="606.14001"
       y="-285.45001"
       id="tspan31" />
  </text>
  <text
     x="348.13"
     y="-1494.62"
     transform="scale(4.0128,0.2492)"
     id="text33"
     style="font-size:46.95399857px;text-anchor:middle;font-family:Arial" />
  <text
     x="1187.41"
     y="-365.45001"
     id="text35"
     style="font-size:129.22999573px;line-height:125%;letter-spacing:0;word-spacing:0;font-family:Gentium Book Basic">
    <tspan
       x="1187.41"
       y="-365.45001"
       id="tspan37" />
  </text>
  <text
     x="492.98001"
     y="-1815.65"
     transform="scale(4.0128,0.2492)"
     id="text39"
     style="font-size:46.95399857px;text-anchor:middle;font-family:Arial" />
  <text
     x="798.28998"
     y="-837.84998"
     id="text41"
     style="font-size:129.22999573px;line-height:125%;letter-spacing:0;word-spacing:0;font-family:Gentium Book Basic">
    <tspan
       x="798.28998"
       y="-837.84998"
       id="tspan43" />
  </text>
  <text
     x="396.01001"
     y="-3711.3"
     transform="scale(4.0128,0.2492)"
     id="text45"
     style="font-size:46.95399857px;text-anchor:middle;font-family:Arial" />
  <text
     x="1379.55"
     y="-917.85999"
     id="text47"
     style="font-size:129.22999573px;line-height:125%;letter-spacing:0;word-spacing:0;font-family:Gentium Book Basic">
    <tspan
       x="1379.55"
       y="-917.85999"
       id="tspan49" />
  </text>
  <text
     x="540.85999"
     y="-4032.3401"
     transform="scale(4.0128,0.2492)"
     id="text51"
     style="font-size:46.95399857px;text-anchor:middle;font-family:Arial" />
  <text
     x="-453.25"
     y="496.85999"
     id="text53"
     style="font-size:208.33000183px;line-height:125%;letter-spacing:0;word-spacing:0;font-family:Gentium Book Basic">
    <tspan
       x="-453.25"
       y="496.85999"
       id="tspan55" />
  </text>
  <path
     d="M 256 41 C 137.27 41 41.009766 137.27977 41.009766 256.00977 C 41.009766 315.37977 65.069565 369.1293 103.97656 408.0293 L 207.94727 512 L 486 512 C 500.397 512 512 500.397 512 486 L 512 207.95117 L 408.00977 103.96094 C 408.14487 104.09608 408.27541 104.2356 408.41016 104.37109 L 408.00977 103.9707 C 369.10762 65.068562 315.37235 41.004965 256.00391 41.003906 L 256 41 z "
     id="path59"
     style="opacity:0.25" />
  <path
     d="M 256,41 C 137.27,41 41.01,137.28 41.01,256.01 41.01,374.74 137.25,471 256,471 374.73,471 470.99,374.76 470.99,256.01 470.99,137.28 374.75,41 256,41 m 79.38,40.672 c 42.05,19.18 75.946,53.11 95.07,95.19 l -92.71,34.784 c -8.513,-15.659 -21.43,-28.573 -37.04,-37.16 l 33.678,-88.85 0.999,-3.961 m -158.77,0.112 34.784,92.71 c -15.659,8.513 -28.573,21.43 -37.16,37.04 L 85.381,177.859 81.42,176.86 c 19.18,-42.05 53.11,-75.946 95.19,-95.07 m 79.38,104.59 c 38.462,0 69.65,31.19 69.65,69.65 0,38.462 -31.19,69.61 -69.65,69.61 -38.462,0 -69.65,-31.15 -69.65,-69.61 0,-38.462 31.19,-69.65 69.65,-69.65 m 81.75,115.43 92.71,34.784 c -19.12,42.08 -53.02,76.02 -95.07,95.19 l -0.999,-3.961 -33.678,-88.85 c 15.616,-8.584 28.531,-21.496 37.04,-37.16 m -163.51,0.112 c 8.584,15.616 21.496,28.531 37.16,37.04 l -34.784,92.71 c -42.08,-19.12 -76.02,-53.02 -95.19,-95.07 l 3.961,-0.999 88.85,-33.678"
     inkscape:connector-curvature="0"
     id="path131"
     style="fill:#ffffff" />
</svg>

<?xml version="1.0" encoding="UTF-8" standalone="no"?>
<!-- Created with Inkscape (http://www.inkscape.org/) -->
<svg id="svg2" xmlns:rdf="http://www.w3.org/1999/02/22-rdf-syntax-ns#" xmlns="http://www.w3.org/2000/svg" height="100%" width="100%" version="1.1" xmlns:cc="http://creativecommons.org/ns#" xmlns:dc="http://purl.org/dc/elements/1.1/" viewBox="0 0 512 512">
 <metadata id="metadata135">
  <rdf:RDF>
   <cc:Work rdf:about="">
    <dc:format>image/svg+xml</dc:format>
    <dc:type rdf:resource="http://purl.org/dc/dcmitype/StillImage"/>
   </cc:Work>
  </rdf:RDF>
 </metadata>
 <path id="path9" d="m26 0c-14.397 0-26 11.603-26 26v460c0 14.397 11.603 26 26 26h460c14.397 0 26-11.603 26-26v-460c0-14.397-11.6-26-26-26h-460" fill="#ef6a47"/>
 <text id="text11" style="word-spacing:0;letter-spacing:0" font-size="129.23px" line-height="125%" y="192.28" x="-1.597" font-family="Gentium Book Basic">
  <tspan id="tspan13" y="192.28" x="-1.597"/>
 </text>
 <text id="text15" style="text-anchor:middle" transform="scale(4.0128 .2492)" font-size="46.954px" y="422.44" x="196.67999" font-family="Arial"/>
 <text id="text17" style="word-spacing:0;letter-spacing:0" font-size="129.23px" line-height="125%" y="112.28" x="579.66998" font-family="Gentium Book Basic">
  <tspan id="tspan19" y="112.28" x="579.66998"/>
 </text>
 <text id="text21" style="text-anchor:middle" transform="scale(4.0128 .2492)" font-size="46.954px" y="101.4" x="341.53" font-family="Arial"/>
 <text id="text23" style="word-spacing:0;letter-spacing:0" font-size="129.23px" line-height="125%" y="-68.978996" x="-491.91" font-family="Gentium Book Basic">
  <tspan id="tspan25" y="-68.978996" x="-491.91"/>
 </text>
 <text id="text27" style="text-anchor:middle" transform="scale(4.0128 .2492)" font-size="46.954px" y="-625.94" x="74.489998" font-family="Arial"/>
 <text id="text29" style="word-spacing:0;letter-spacing:0" font-size="129.23px" line-height="125%" y="-285.45001" x="606.14001" font-family="Gentium Book Basic">
  <tspan id="tspan31" y="-285.45001" x="606.14001"/>
 </text>
 <text id="text33" style="text-anchor:middle" transform="scale(4.0128 .2492)" font-size="46.954px" y="-1494.62" x="348.13" font-family="Arial"/>
 <text id="text35" style="word-spacing:0;letter-spacing:0" font-size="129.23px" line-height="125%" y="-365.45001" x="1187.41" font-family="Gentium Book Basic">
  <tspan id="tspan37" y="-365.45001" x="1187.41"/>
 </text>
 <text id="text39" style="text-anchor:middle" transform="scale(4.0128 .2492)" font-size="46.954px" y="-1815.65" x="492.98001" font-family="Arial"/>
 <text id="text41" style="word-spacing:0;letter-spacing:0" font-size="129.23px" line-height="125%" y="-837.84998" x="798.28998" font-family="Gentium Book Basic">
  <tspan id="tspan43" y="-837.84998" x="798.28998"/>
 </text>
 <text id="text45" style="text-anchor:middle" transform="scale(4.0128 .2492)" font-size="46.954px" y="-3711.3" x="396.01001" font-family="Arial"/>
 <text id="text47" style="word-spacing:0;letter-spacing:0" font-size="129.23px" line-height="125%" y="-917.85999" x="1379.55" font-family="Gentium Book Basic">
  <tspan id="tspan49" y="-917.85999" x="1379.55"/>
 </text>
 <text id="text51" style="text-anchor:middle" transform="scale(4.0128 .2492)" font-size="46.954px" y="-4032.3401" x="540.85999" font-family="Arial"/>
 <text id="text53" style="word-spacing:0;letter-spacing:0" font-size="208.33px" line-height="125%" y="496.85999" x="-453.25" font-family="Gentium Book Basic">
  <tspan id="tspan55" y="496.85999" x="-453.25"/>
 </text>
 <path id="path59" opacity=".25" d="m256 41c-118.73 0-214.99 96.28-214.99 215.01 0 59.37 24.06 113.12 62.97 152.02l103.97 103.97h278.05c14.4 0 26-11.6 26-26v-278.05l-103.99-103.99c0.13 0.14 0.27 0.28 0.4 0.41l-0.4-0.4c-38.9-38.901-92.64-62.965-152.01-62.966v-0.004z"/>
 <path id="path131" d="m256 41c-118.73 0-214.99 96.28-214.99 215.01s96.24 214.99 214.99 214.99c118.73 0 214.99-96.24 214.99-214.99 0-118.73-96.24-215.01-214.99-215.01m79.38 40.672c42.05 19.18 75.946 53.11 95.07 95.19l-92.71 34.784c-8.513-15.659-21.43-28.573-37.04-37.16l33.678-88.85 0.999-3.961m-158.77 0.112 34.784 92.71c-15.659 8.513-28.573 21.43-37.16 37.04l-88.849-33.67-3.961-1c19.18-42.05 53.11-75.946 95.19-95.07m79.38 104.59c38.462 0 69.65 31.19 69.65 69.65 0 38.462-31.19 69.61-69.65 69.61-38.462 0-69.65-31.15-69.65-69.61 0-38.462 31.19-69.65 69.65-69.65m81.75 115.43 92.71 34.784c-19.12 42.08-53.02 76.02-95.07 95.19l-0.999-3.961-33.678-88.85c15.616-8.584 28.531-21.496 37.04-37.16m-163.51 0.112c8.584 15.616 21.496 28.531 37.16 37.04l-34.784 92.71c-42.08-19.12-76.02-53.02-95.19-95.07l3.961-0.999 88.85-33.678" fill="#fff"/>
</svg>
